svgs/sharp-solid/arrow-up-right-from-square.svg

<svg xmlns="http://www.w3.org/2000/svg" viewBox="0 0 512 512"><!--! Font Awesome Pro 6.6.0 by @fontawesome - https://fontawesome.com License - https://fontawesome.com/license (Commercial License) Copyright 2024 Fonticons, Inc. --><path d="M320 0L288 0l0 64 32 0 82.7 0L201.4 265.4 178.7 288 224 333.3l22.6-22.6L448 109.3l0 82.7 0 32 64 0 0-32 0-160 0-32L480 0 320 0zM32 32L0 32 0 64 0 480l0 32 32 0 424 0 32 0 0-32 0-128 0-32-64 0 0 32 0 96L64 448 64 96l96 0 32 0 0-64-32 0L32 32z"/></svg>

<svg xmlns="http://www.w3.org/2000/svg" viewBox="0 0 512 512"><!--! Font Awesome Pro 6.4.0 by @fontawesome - https://fontawesome.com License - https://fontawesome.com/license (Commercial License) Copyright 2023 Fonticons, Inc. --><path d="M320 0H288V64h32 82.7L201.4 265.4 178.7 288 224 333.3l22.6-22.6L448 109.3V192v32h64V192 32 0H480 320zM32 32H0V64 480v32H32 456h32V480 352 320H424v32 96H64V96h96 32V32H160 32z"/></svg>
